lib/brands/icons/adobe-spark.svg

<svg xmlns="http://www.w3.org/2000/svg" fill="none" aria-hidden="true" viewBox="0 0 48 48"><g id="adobe-spark-Icon"><g id="Group"><path id="bg" fill="#370000" d="M6 19.0286C6 14.4681 6 12.1879 6.88752 10.4461C7.6682 8.9139 8.9139 7.6682 10.4461 6.88752C12.1879 6 14.4681 6 19.0286 6H28.9714C33.5319 6 35.8121 6 37.5539 6.88752C39.0861 7.6682 40.3318 8.9139 41.1125 10.4461C42 12.1879 42 14.4681 42 19.0286V28.9714C42 33.5319 42 35.8121 41.1125 37.5539C40.3318 39.0861 39.0861 40.3318 37.5539 41.1125C35.8121 42 33.5319 42 28.9714 42H19.0286C14.4681 42 12.1879 42 10.4461 41.1125C8.9139 40.3318 7.6682 39.0861 6.88752 37.5539C6 35.8121 6 33.5319 6 28.9714V19.0286Z"/><g id="Vector"><path fill="#FA0F00" d="M16.9579 32.0654C15.5174 32.0929 13.9993 31.856 12.6834 31.2193C12.5489 31.1566 12.4891 31.0155 12.4891 30.7962V27.7876C12.4891 27.6597 12.5927 27.5883 12.6984 27.6622C13.9943 28.5077 15.5198 28.9785 17.0475 28.9785C18.0051 28.9785 19.5883 28.7863 19.5883 27.4429C19.5883 25.8205 17.2956 25.2853 16.1807 24.7947C14.1115 23.8601 12.4294 22.4884 12.4294 19.9527C12.3995 18.1351 13.4158 16.4584 15 15.7219C16.9257 14.7655 19.9713 14.7532 21.9348 15.7219C22.0394 15.7846 22.1141 15.91 22.0992 16.051V18.9029C22.0992 19.0285 21.9713 19.0609 21.8899 18.9969C20.7553 18.4021 19.4651 18.1212 18.1984 18.1507C17.4128 18.1507 16.2182 18.2455 15.7921 19.0752C14.9669 20.8056 17.6966 21.6492 18.856 22.1152C20.9828 23.026 22.9511 24.5004 22.9511 27.1608C23.0059 30.6082 19.7549 32.0654 16.9579 32.0654Z"/><path fill="#FA0F00" d="M29.4824 19.0219C32.8636 19.0219 35.5898 21.5872 35.5697 25.1519C35.6156 27.1499 34.7931 29.1017 33.2876 30.3417C31.6433 31.6948 29.7063 32.0403 27.6815 32.0403V36.3275C27.6936 36.4457 27.6035 36.5527 27.4901 36.5547C26.5166 36.6566 25.5218 36.7663 24.5533 36.8571C24.4577 36.8571 24.4039 36.7898 24.4039 36.6566V21.8471C24.4039 21.305 24.3961 20.7447 24.3306 20.2065C24.3189 20.1382 24.3634 20.0663 24.4278 20.0498C26.0345 19.4392 27.7672 19.0078 29.4824 19.0219ZM27.6695 22.1182V29.0129C30.0217 29.8296 32.1338 27.7676 32.1338 25.3838C32.1338 22.7686 30.0543 21.4504 27.6695 22.1182Z"/></g></g></g></svg>

<svg xmlns="http://www.w3.org/2000/svg" fill="none" aria-hidden="true" viewBox="0 0 48 48"><path fill="#370000" d="M6 19.029c0-4.56 0-6.841.888-8.583a8.143 8.143 0 0 1 3.558-3.558C12.188 6 14.468 6 19.03 6h9.942c4.56 0 6.841 0 8.583.888a8.143 8.143 0 0 1 3.558 3.558C42 12.188 42 14.468 42 19.03v9.942c0 4.56 0 6.841-.888 8.583a8.143 8.143 0 0 1-3.558 3.558C35.812 42 33.532 42 28.97 42h-9.94c-4.56 0-6.841 0-8.583-.888a8.143 8.143 0 0 1-3.558-3.558C6 35.812 6 33.532 6 28.97v-9.94Z"/><path fill="#FA0F00" d="M16.958 32.065c-1.44.028-2.959-.209-4.275-.846-.134-.062-.194-.204-.194-.423v-3.008c0-.128.104-.2.21-.126a8.007 8.007 0 0 0 4.348 1.317c.958 0 2.541-.193 2.541-1.536 0-1.623-2.292-2.158-3.407-2.648-2.07-.935-3.752-2.307-3.752-4.842-.03-1.818.987-3.495 2.571-4.231 1.926-.957 4.971-.969 6.935 0 .104.063.18.188.164.329v2.852c0 .126-.128.158-.21.094a7.613 7.613 0 0 0-3.69-.846c-.786 0-1.98.095-2.407.924-.825 1.73 1.905 2.574 3.064 3.04 2.127.911 4.095 2.385 4.095 5.046.055 3.447-3.196 4.904-5.993 4.904Zm12.524-13.043c3.382 0 6.108 2.565 6.088 6.13.046 1.998-.777 3.95-2.282 5.19-1.645 1.353-3.582 1.698-5.606 1.698v4.288c.012.118-.078.225-.192.227-.973.102-1.968.211-2.937.302-.095 0-.15-.067-.15-.2v-14.81c0-.542-.007-1.102-.072-1.64a.14.14 0 0 1 .097-.157c1.607-.61 3.34-1.042 5.054-1.028Zm-1.813 3.096v6.895c2.353.817 4.465-1.245 4.465-3.63 0-2.614-2.08-3.933-4.465-3.265Z"/></svg>
